Facilitet_punkt_5800_Piktogrammer/Cirkel/SVG/TOILET.svg

<svg xmlns="http://www.w3.org/2000/svg" width="5.5mm" height="5.5mm" viewBox="0 0 15.591 15.591">
  <rect width="15.591" height="15.591" rx="7.795" fill="#031E3A"/>
  <g>
    <path d="M4.985,4.336A1.016,1.016,0,1,0,3.969,3.32,1.015,1.015,0,0,0,4.985,4.336" fill="#fff"/>
    <path d="M10.351,4.336A1.016,1.016,0,1,0,9.336,3.32a1.015,1.015,0,0,0,1.015,1.016" fill="#fff"/>
    <path d="M5.988,4.7H4.031A1.1,1.1,0,0,0,2.907,5.781L3.1,9.037a1.084,1.084,0,0,0,.769,1.023A.186.186,0,0,1,4,10.22l.28,2.408a.723.723,0,0,0,.732.658h0a.723.723,0,0,0,.732-.658l.281-2.408a.185.185,0,0,1,.132-.16,1.085,1.085,0,0,0,.77-1.023l.187-3.256A1.1,1.1,0,0,0,5.988,4.7" fill="#fff"/>
    <path d="M12.663,9.811l-.908-3.883A1.336,1.336,0,0,0,10.366,4.9,1.335,1.335,0,0,0,8.978,5.928l-.9,3.883A1.1,1.1,0,0,0,8.9,11.2h.564l.165,1.426a.739.739,0,0,0,1.469,0l.165-1.426h.573C12.3,11.2,12.792,10.541,12.663,9.811Z" fill="#fff"/>
  </g>
</svg>

<?xml version="1.0" encoding="UTF-8"?>
<svg xmlns="http://www.w3.org/2000/svg" viewBox="0 0 15.59 15.59">
  <defs>
    <style>
      .cls-1 {
        fill: #071f39;
      }

      .cls-1, .cls-2 {
        stroke-width: 0px;
      }

      .cls-2 {
        fill: #fff;
      }
    </style>
  </defs>
  <g id="Cirkel">
    <rect class="cls-1" x="0" y="0" width="15.59" height="15.59" rx="7.8" ry="7.8"/>
  </g>
  <g id="ICONS">
    <g>
      <path class="cls-2" d="M4.98,4.34c.56,0,1.02-.45,1.02-1.02s-.45-1.02-1.02-1.02-1.02.45-1.02,1.02.45,1.02,1.02,1.02"/>
      <path class="cls-2" d="M10.35,4.34c.56,0,1.02-.45,1.02-1.02s-.45-1.02-1.02-1.02-1.02.45-1.02,1.02.45,1.02,1.02,1.02"/>
      <path class="cls-2" d="M5.99,4.7h-1.96c-.62,0-1.12.48-1.12,1.08l.19,3.26c0,.48.32.88.77,1.02.07.02.13.09.13.16l.28,2.41c.03.37.35.66.73.66h0c.39,0,.71-.29.73-.66l.28-2.41c0-.07.06-.14.13-.16.45-.14.77-.55.77-1.02l.19-3.26c0-.6-.5-1.08-1.12-1.08"/>
      <path class="cls-2" d="M12.66,9.81l-.91-3.88c-.08-.6-.7-1.03-1.39-1.03s-1.31.43-1.39,1.03l-.9,3.88c-.16.76.37,1.39.82,1.39h.56l.16,1.43c.03.37.35.66.73.66s.7-.28.73-.66l.16-1.43h.57c.46,0,.95-.66.82-1.39Z"/>
    </g>
  </g>
</svg>
